!!!OTL: IM WALD UND AUF DER HAIDE
!!!ARE: Europa, Mitteleuropa, Deutschland, Anclam
!!!SCT: Z0204
!!!YEM: Copyright 1995, estate of Helmut Schaffrath.
**kern
*ICvox
*Ivox
*M6/8
*k[]
*C:
{8G
=1
4G
8G
4G
8G
=2
4G
8e
8c
8B}
{8c
=3
4A
8A
4A
8A
=4
4A
8f
8d
8c}
{8d
=5
4B
8B
8B
8c
8d
=6
4.e}
{8f
8e
8d
=7
4c
8c
8B
8A
8B
=8
2c}
{8c
8d
=9
4e
16e
16e
4e
16e
16e
=10
4.g}
{8g
8f
8e
=11
4d
8d
8d
8c
8d
=12
4.e}
{8f
8e
8d
=13
4c
8c
8B
8A
8B
=14
4.c}
{8g
8f
8d
=15
4d
8d
8d
8c
8d
=16
2c
8r}
==
!!!AGN: Jaeger - Lied
!!!ONB: ESAC (Essen Associative Code) Database: ZUCCAL
!!!AMT: compound duple
!!!AIN: vox
!!!EED: Helmut Schaffrath
!!!EEV: 1.0
*-
